src/img/Union8.svg

<svg width="53.604004" height="44.669922" viewBox="0 0 53.604 44.6699" fill="none" xmlns="http://www.w3.org/2000/svg" xmlns:xlink="http://www.w3.org/1999/xlink">
	<desc>
			Created with Pixso.
	</desc>
	<defs/>
	<path id="Union" d="M6.47949 0C2.90088 0 0 2.97266 0 6.63965L0 38.6338C0 41.9678 2.63721 44.6699 5.89062 44.6699L47.7134 44.6699C50.9668 44.6699 53.604 41.9678 53.604 38.6338L53.604 15.0908C53.604 11.7578 50.9668 9.05469 47.7134 9.05469L43.5898 9.05469L43.5898 6.63965C43.5898 2.97266 40.689 0 37.1104 0L6.47949 0ZM42.4121 9.05469L42.4121 6.63965C42.4121 3.63965 40.0386 1.20703 37.1104 1.20703L6.47949 1.20703C3.55176 1.20703 1.17822 3.63965 1.17822 6.63965L1.17822 11.4688C2.25293 10.0029 3.96387 9.05469 5.89062 9.05469L42.4121 9.05469ZM50.6587 19.9199C51.3218 19.9199 51.9336 20.1445 52.4258 20.5234L52.4258 15.0908C52.4258 12.4238 50.3159 10.2617 47.7134 10.2617L5.89062 10.2617C3.28809 10.2617 1.17822 12.4238 1.17822 15.0908L1.17822 38.6338C1.17822 41.3008 3.28809 43.4629 5.89062 43.4629L47.7134 43.4629C50.3159 43.4629 52.4258 41.3008 52.4258 38.6338L52.4258 33.8047C51.9336 34.1836 51.3218 34.4082 50.6587 34.4082L35.9321 34.4082C34.3057 34.4082 32.9873 33.0566 32.9873 31.3896L32.9873 22.9385C32.9873 21.2715 34.3057 19.9199 35.9321 19.9199L50.6587 19.9199ZM16.188 17.2256Q19.0591 17.2256 20.48 18.3115C21.4468 19.0176 21.9297 20.1328 21.9297 21.6582C21.9297 22.5166 21.7593 23.2598 21.4185 23.8887C21.0771 24.499 20.6509 25.0615 20.1392 25.5762C19.6465 26.0908 19.144 26.625 18.6323 27.1777C18.1396 27.7119 17.7134 28.3311 17.353 29.0371C16.9932 29.7236 16.7944 30.5625 16.7563 31.5537L14.6812 31.5537C14.6621 30.5049 14.8042 29.5996 15.1074 28.8369C15.4106 28.0742 15.79 27.4062 16.2446 26.835C16.7183 26.2627 17.1924 25.7383 17.666 25.2617Q18.3765 24.5186 18.8599 23.7744C19.1821 23.2783 19.3525 22.7168 19.3716 22.0869C19.4097 21.1338 19.125 20.4287 18.5186 19.9707C17.9312 19.5127 16.9839 19.2842 15.6763 19.2842C14.7476 19.2842 13.98 19.2939 13.3735 19.3125C12.7861 19.332 12.2461 19.3701 11.7534 19.4277C11.2793 19.4658 10.7202 19.5127 10.0762 19.5703L9.93408 17.8262C10.4268 17.7305 10.8721 17.6543 11.27 17.5967C11.668 17.5205 12.085 17.4541 12.521 17.3965C12.9565 17.3398 13.459 17.3018 14.0273 17.2822C14.6147 17.2441 15.335 17.2256 16.188 17.2256ZM50.6587 21.1279C51.6348 21.1279 52.4258 21.9385 52.4258 22.9385L52.4258 31.3896C52.4258 32.3896 51.6348 33.2002 50.6587 33.2002L35.9321 33.2002C34.9565 33.2002 34.165 32.3896 34.165 31.3896L34.165 22.9385C34.165 21.9385 34.9565 21.1279 35.9321 21.1279L50.6587 21.1279ZM43.001 27.1641C43.001 28.8311 41.6826 30.1826 40.0557 30.1826C38.4292 30.1826 37.1104 28.8311 37.1104 27.1641C37.1104 25.4971 38.4292 24.1455 40.0557 24.1455C41.6826 24.1455 43.001 25.4971 43.001 27.1641ZM41.8228 27.1641C41.8228 28.1641 41.0317 28.9756 40.0557 28.9756C39.0796 28.9756 38.2886 28.1641 38.2886 27.1641C38.2886 26.1641 39.0796 25.3535 40.0557 25.3535C41.0317 25.3535 41.8228 26.1641 41.8228 27.1641ZM16.728 34.4141C16.5952 34.2803 16.3677 34.2139 16.0454 34.2139L15.3916 34.2139C15.0698 34.2139 14.8423 34.2803 14.7095 34.4141C14.5771 34.5469 14.5107 34.7852 14.5107 35.1289L14.5107 36.6729C14.5107 37.0166 14.5771 37.2549 14.7095 37.3877C14.8423 37.5215 15.0698 37.5879 15.3916 37.5879L16.0454 37.5879C16.3677 37.5879 16.5952 37.5215 16.728 37.3877C16.8604 37.2549 16.9268 37.0166 16.9268 36.6729L16.9268 35.1289C16.9268 34.7852 16.8604 34.5469 16.728 34.4141Z" fill="#FFFFFF" fill-opacity="1.000000" fill-rule="evenodd"/>
</svg>

<svg width="53.604" height="44.67" fill="none" xmlns="http://www.w3.org/2000/svg"><path d="M6.48 0C2.9 0 0 2.973 0 6.64v31.994c0 3.334 2.637 6.036 5.89 6.036h41.823c3.254 0 5.891-2.702 5.891-6.036V15.09c0-3.333-2.637-6.036-5.89-6.036H43.59V6.64c0-3.667-2.901-6.64-6.48-6.64H6.48Zm35.932 9.055V6.64c0-3-2.373-5.433-5.302-5.433H6.48c-2.928 0-5.302 2.433-5.302 5.433v4.829c1.075-1.466 2.786-2.414 4.713-2.414h36.521ZM50.66 19.92c.663 0 1.275.224 1.767.603v-5.432c0-2.667-2.11-4.83-4.713-4.83H5.891c-2.603 0-4.713 2.163-4.713 4.83v23.543c0 2.667 2.11 4.829 4.713 4.829h41.822c2.603 0 4.713-2.162 4.713-4.83v-4.828a2.886 2.886 0 0 1-1.767.603H35.932c-1.626 0-2.945-1.351-2.945-3.018v-8.451c0-1.668 1.319-3.02 2.945-3.02H50.66Zm-34.471-2.694q2.871 0 4.292 1.085c.967.707 1.45 1.822 1.45 3.347 0 .859-.17 1.602-.511 2.23a7.762 7.762 0 0 1-1.28 1.688c-.492.515-.995 1.049-1.507 1.602a8.262 8.262 0 0 0-1.279 1.86c-.36.686-.559 1.524-.597 2.516h-2.075c-.019-1.05.123-1.954.426-2.717a7.846 7.846 0 0 1 1.138-2.002c.473-.572.947-1.097 1.421-1.573q.71-.743 1.194-1.488a3.212 3.212 0 0 0 .512-1.687c.038-.953-.247-1.658-.853-2.116-.588-.458-1.535-.687-2.843-.687-.928 0-1.696.01-2.303.029-.587.019-1.127.057-1.62.115-.474.038-1.033.085-1.677.142l-.142-1.744c.493-.096.938-.172 1.336-.23.398-.076.815-.142 1.251-.2.435-.056.938-.094 1.506-.114a34.291 34.291 0 0 1 2.161-.056Zm34.47 3.902c.977 0 1.768.81 1.768 1.81v8.452c0 1-.791 1.81-1.767 1.81H35.932c-.976 0-1.767-.81-1.767-1.81v-8.451c0-1 .791-1.811 1.767-1.811H50.66Zm-7.657 6.036c0 1.667-1.318 3.019-2.945 3.019-1.627 0-2.946-1.352-2.946-3.019s1.32-3.019 2.946-3.019c1.627 0 2.945 1.352 2.945 3.02Zm-1.178 0c0 1-.791 1.812-1.767 1.812-.976 0-1.767-.812-1.767-1.812s.79-1.81 1.767-1.81c.976 0 1.767.81 1.767 1.81Zm-25.095 7.25c-.133-.134-.36-.2-.683-.2h-.653c-.322 0-.55.066-.682.2-.133.133-.2.371-.2.715v1.544c0 .344.067.582.2.715.132.134.36.2.682.2h.653c.323 0 .55-.066.683-.2.132-.133.199-.371.199-.715v-1.544c0-.344-.067-.582-.199-.715Z" fill="#FFF" fill-rule="evenodd"/></svg>
